!!!OTL: Der Rheinschiffer
!!!ARE: Europa, Mitteleuropa, Deutschland
!!!SCT: A0080
!!!YEM: Copyright 1995, estate of Helmut Schaffrath.
**kern
*ICvox
*Ivox
!! Mixed meters:  3/2; 4/2
*M3/2
*k[b-]
*F:
{2f
=1
2.f
4g
2a
=2
1b-}
{2a
=3
2f
1a
=4
1.g
=5
1r}
{2f
=6
2.f
4g
2a
=7
1b-}
{2a
=8
2f
1a
=9
1.g
=10
*M4/2
2r}
{2f
2e
2f
=11
1g
2f
2e
=12
1d
1c
=13
1.cc
4b-
4a
=14
2g}
{2cc
2b-
2b-
=15
*M3/2
2.a
4g
2f}
=16
{2a
=17
*M4/2
1g
1f
=18
1r}
==
!!!AGN: Romanze, Ballade, Lied
!! Melodie aus den Souterliedekens 1540 ad Ps. 130.
!!!ONB: ESAC (Essen Associative Code) Database: ALTDEU
!!!AMT: irregular
!!!AIN: vox
!!!EED: Helmut Schaffrath
!!!EEV: 1.0
*-
